X: 25446
T: Marcha Procesional De Lousame
R: polka
M: 2/4
K: Dmajor
d/c/B/A/|:dA d/c/B/c/|A2 G/F/E/D/|A/A/G/F/ F/E/E/D/|FD d/c/B/A/|
dA d/c/B/c/|A2 B/A/G/F/|A/A/G/F/ F/E/E/D/|1 D2 d/c/B/A/:|2 D2 F/F/F/G/||
|:A/B/A/F/ G/A/G/E/|FD F/F/F/G/|A/B/A/F/ G/A/G/E/|1 D2 F/F/F/G/:|2 D2||

